X: 37711
T: Soho South
R: slip jig
M: 9/8
K: Bminor
M:7/8
|:Dz d2 dBA|AB AB AFE|Dz d2 dBA|AB FA EEE|
Dz d2 dBA|BB AB AFE|FF AB AFE|1 FF Dz DFA:|2 FF Dz AB/c/d||
|:fz AB def|g2- ga gfe|ff AB def|ez AA AB/c/d|
fz AB def|gz gg gfe|fz ab afe|1 ef- fd- dB/c/d:|2 ef- fd- dA/F/E||

